symbols/web/bug_report/materialsymbolsoutlined/bug_report_wght300grad200_24px.svg

<svg xmlns="http://www.w3.org/2000/svg" height="24" width="24"><path d="M12 21.3q-1.675 0-3.125-.825T6.6 18.2H3.75v-2.15h2.125q-.1-.475-.112-.975-.013-.5-.013-.975h-2v-2.15h2v-.962q0-.488.125-.938H3.75V7.9H6.6q.325-.625.813-1.125.487-.5 1.062-.9L6.775 4.2 8.3 2.725 10.475 4.9q.75-.3 1.538-.3.787 0 1.512.3l2.2-2.175L17.2 4.2l-1.675 1.675q.55.4 1.037.912.488.513.863 1.113h2.825v2.15h-2.125q.125.45.125.938v.962h2v2.15h-2q0 .475-.012.975-.013.5-.113.975h2.125v2.15H17.4q-.825 1.45-2.275 2.275T12 21.3Zm0-2.15q1.7 0 2.9-1.2t1.2-2.9V11q0-1.7-1.2-2.9T12 6.9q-1.7 0-2.9 1.2T7.9 11v4.05q0 1.7 1.2 2.9t2.9 1.2Zm-2.1-3h4.2V14H9.9Zm0-4.1h4.2V9.9H9.9Zm2.1.975Z"/></svg>

<svg xmlns="http://www.w3.org/2000/svg" height="24" width="24"><path d="M12 21.3Q10.325 21.3 8.875 20.475Q7.425 19.65 6.6 18.2H3.75V16.05H5.875Q5.775 15.575 5.763 15.075Q5.75 14.575 5.75 14.1H3.75V11.95H5.75Q5.75 11.475 5.75 10.988Q5.75 10.5 5.875 10.05H3.75V7.9H6.6Q6.925 7.275 7.413 6.775Q7.9 6.275 8.475 5.875L6.775 4.2L8.3 2.725L10.475 4.9Q11.225 4.6 12.013 4.6Q12.8 4.6 13.525 4.9L15.725 2.725L17.2 4.2L15.525 5.875Q16.075 6.275 16.562 6.787Q17.05 7.3 17.425 7.9H20.25V10.05H18.125Q18.25 10.5 18.25 10.988Q18.25 11.475 18.25 11.95H20.25V14.1H18.25Q18.25 14.575 18.238 15.075Q18.225 15.575 18.125 16.05H20.25V18.2H17.4Q16.575 19.65 15.125 20.475Q13.675 21.3 12 21.3ZM12 19.15Q13.7 19.15 14.9 17.95Q16.1 16.75 16.1 15.05V11Q16.1 9.3 14.9 8.1Q13.7 6.9 12 6.9Q10.3 6.9 9.1 8.1Q7.9 9.3 7.9 11V15.05Q7.9 16.75 9.1 17.95Q10.3 19.15 12 19.15ZM9.9 16.15H14.1V14H9.9ZM9.9 12.05H14.1V9.9H9.9ZM12 13.025Q12 13.025 12 13.025Q12 13.025 12 13.025Q12 13.025 12 13.025Q12 13.025 12 13.025Q12 13.025 12 13.025Q12 13.025 12 13.025Q12 13.025 12 13.025Q12 13.025 12 13.025Z"/></svg>
